X:426
T:Lord Kilmurry's Delight
C:Nathaniel Kynaston, 1710
L:1/4
M:2/2
S:Colin Hume's website,  colinhume.com  - chords can also be printed below the stave.
Q:1/2=110
K:D
P:A
|: "D"D2 "A7"F3/G/ | "D"A2 Dd | "A"cB "E7"c/d/e | "A"A2 "A7"G2 |\
"D"Fd "G"Ed | "A7"c/d/e/B/ "/"AG | "D"FG3/4F/4 "A7"Ec | "D"dc/B/ "A7"A/G/F/E/ |
"D"D2 "A7"F3/G/ | "D"A2 Dd | "A"cB "E7"c/d/e | "A"A2 "D7"f3/e/4f/4 |\
"G"g2 "/"B/c/d | "A"c/d/e "/"AG | "Bm"Fd "A7"Ec |1 "D"dc/B/ "A7"A/G/F/E/ :|2 "D"d4 |
P:B
"Em"e3/d/ "A7"cA | "D"d2- "/"dc/d/ | "Bm"Bf "Em"e/d/c/B/ | "F#"^A2 "F#7"FA |\
"Bm"Bd "F#7"ce | "Bm"df "F#7"eg | "Bm"fB "F#7"F^A3/4c/4 | "Bm"B2- "/"B "A7"A/G/ |
"D"FD/D/ "/"DD | "D"FA "D/C#"d/c/d/A/ | "Bm"FD/D/ "/"D/E/F/G/ | "A"A2 "A7"z/A/B/c/ |\
"D"d/c/d/e/ "Bm"f/e/f/g/ | "A"a2- "/"a2 | "G"g/f/e/d/ "A7"Ac | "D"d2- "/"dA/G/ |
"D"FA "A/C#"EG | "Bm"D/F/E/D/ "A"CA, | "G"D3/E/ "A7"E3/D/ | "D"D2- "/"D2 |]

